assets/static/img/collections/2.svg

<svg width="133" height="118" viewBox="0 0 173 154" fill="none" xmlns="http://www.w3.org/2000/svg" id="self">
	<g clip-path="url(#clip0_7_2)">
		<mask id="mask0_7_2" style="mask-type:luminance" maskUnits="userSpaceOnUse" x="0" y="0" width="173" height="154">
			<path d="M173 0H0V154H173V0Z" fill="white" />
		</mask>
		<path d="M117.867 111.637H43.6855C40.7608 111.634 37.8839 110.894 35.3198 109.487C32.7557 108.08 30.587 106.05 29.0133 103.585C28.0791 101.785 27.2477 99.9328 26.5232 98.0383C25.8074 96.2937 25.1812 94.6088 24.7786 93.3861L24.4655 92.4169H136.968L136.595 93.4159C135.373 96.969 133.959 100.453 132.36 103.854C130.759 106.254 128.593 108.225 126.053 109.594C123.534 110.939 120.722 111.64 117.867 111.637ZM26.5381 93.908C26.8959 94.9517 27.3731 96.2043 27.8949 97.4717C28.5882 99.2829 29.3796 101.055 30.2658 102.78C31.7058 105.034 33.6895 106.89 36.0345 108.178C38.3795 109.465 41.0105 110.142 43.6855 110.146H117.867C120.47 110.136 123.03 109.486 125.322 108.252C127.652 106.997 129.639 105.19 131.108 102.989C132.509 100.033 133.744 97.0017 134.806 93.908H26.5381Z" fill="black" />
		<path d="M117.867 114.873H43.6855C40.2505 114.871 36.8712 114.004 33.8593 112.353C30.8412 110.677 28.281 108.286 26.4038 105.389C24.284 101.588 22.6365 97.5422 21.4982 93.3414C21.4507 93.1436 21.4837 92.9351 21.59 92.7618C21.6963 92.5884 21.867 92.4643 22.0648 92.4169C22.2625 92.3694 22.471 92.4025 22.6444 92.5087C22.8177 92.615 22.9418 92.7858 22.9892 92.9835C24.0979 97.0198 25.6847 100.909 27.716 104.569C29.4559 107.272 31.8446 109.497 34.6644 111.041C37.457 112.572 40.5899 113.377 43.775 113.382H117.867C121.014 113.371 124.109 112.584 126.879 111.091C129.649 109.598 132.008 107.445 133.747 104.823C134.836 102.924 135.744 100.927 136.461 98.8584C137.281 96.7261 138.071 94.3851 138.593 92.894C138.672 92.7295 138.808 92.5996 138.976 92.5288C139.145 92.4581 139.333 92.4515 139.506 92.5103C139.678 92.5691 139.824 92.6892 139.914 92.8479C140.004 93.0065 140.033 93.1927 139.995 93.3712C139.473 94.8623 138.682 97.1884 137.862 99.3355C137.095 101.506 136.132 103.602 134.985 105.598C133.116 108.434 130.575 110.765 127.589 112.383C124.603 114.001 121.263 114.856 117.867 114.873ZM117.867 111.637H43.6855C40.7607 111.634 37.8838 110.894 35.3198 109.487C32.7557 108.08 30.587 106.05 29.0132 103.585C28.0791 101.785 27.2477 99.9328 26.5231 98.0383C25.8074 96.2937 25.1811 94.6088 24.7785 93.3861C24.7192 93.1884 24.7409 92.9752 24.8388 92.7934C24.9366 92.6116 25.1027 92.4762 25.3004 92.4169C25.4982 92.3576 25.7114 92.3792 25.8931 92.4771C26.0749 92.575 26.2103 92.741 26.2696 92.9388C26.6424 94.1167 27.2687 95.7718 27.9546 97.412C28.6478 99.2232 29.4392 100.995 30.3254 102.72C31.7654 104.975 33.7491 106.831 36.0941 108.118C38.4391 109.405 41.0701 110.082 43.7451 110.086H117.867C120.47 110.077 123.03 109.426 125.322 108.193C127.652 106.938 129.639 105.13 131.108 102.929C132.648 99.6462 134.007 96.2812 135.178 92.8493C135.246 92.6635 135.384 92.512 135.563 92.4281C135.742 92.3442 135.947 92.3348 136.133 92.402C136.319 92.4693 136.47 92.6076 136.554 92.7865C136.638 92.9655 136.647 93.1704 136.58 93.3563C135.358 96.9093 133.944 100.394 132.345 103.794C130.744 106.195 128.578 108.166 126.038 109.535C123.529 110.897 120.722 111.62 117.867 111.637ZM96.9918 78.177H43.9837C43.786 78.177 43.5964 78.0985 43.4565 77.9587C43.3167 77.8188 43.2382 77.6292 43.2382 77.4315V71.3031C43.2382 71.1054 43.3167 70.9158 43.4565 70.776C43.5964 70.6361 43.786 70.5576 43.9837 70.5576H96.9918C97.1895 70.5576 97.3791 70.6361 97.5189 70.776C97.6588 70.9158 97.7373 71.1054 97.7373 71.3031V77.4315C97.7335 77.628 97.6537 77.8154 97.5147 77.9544C97.3757 78.0934 97.1883 78.1732 96.9918 78.177ZM44.8038 76.6859H96.2164V72.0487H44.8038V76.6859Z" fill="var(--main-color, #337AB7)" />
		<path d="M142.097 90.9258H20.6632C20.5595 90.9284 20.4564 90.9084 20.3611 90.8672C20.2658 90.826 20.1807 90.7646 20.1115 90.6872C20.039 90.6106 19.9851 90.5183 19.954 90.4174C19.923 90.3165 19.9157 90.2099 19.9326 90.1057L20.7974 82.7248C21.1527 80.971 22.1269 79.4035 23.5422 78.3085C24.9575 77.2135 26.7195 76.664 28.5063 76.7605H115.943C121.009 76.7357 125.988 78.0693 130.362 80.6224L142.47 87.7051C142.583 87.7701 142.676 87.8635 142.742 87.976C142.807 88.0885 142.842 88.2161 142.843 88.3462V90.1206C142.851 90.2234 142.838 90.3268 142.804 90.4243C142.77 90.5217 142.717 90.6111 142.647 90.6868C142.576 90.7625 142.491 90.8228 142.397 90.8639C142.302 90.9051 142.2 90.9261 142.097 90.9258ZM21.4982 89.4347H141.352V88.8234L129.602 81.8302C125.457 79.4137 120.741 78.1522 115.943 78.177H28.5063C27.0744 78.0811 25.6558 78.5048 24.511 79.3703C23.3661 80.2357 22.5718 81.485 22.2736 82.8889L21.4982 89.4347ZM78.0252 52.8733H43.9838C43.786 52.8733 43.5964 52.7948 43.4566 52.655C43.3168 52.5152 43.2382 52.3255 43.2382 52.1278V51.5463C43.2382 50.0158 43.8462 48.5481 44.9284 47.4659C46.0105 46.3837 47.4783 45.7758 49.0087 45.7758H73.0003C74.5307 45.7758 75.9984 46.3837 77.0806 47.4659C78.1628 48.5481 78.7708 50.0158 78.7708 51.5463V52.1278C78.7708 52.3255 78.6922 52.5152 78.5524 52.655C78.4126 52.7948 78.2229 52.8733 78.0252 52.8733ZM44.8039 51.3822H77.2797C77.2336 50.2772 76.7629 49.2325 75.9657 48.4659C75.1685 47.6992 74.1063 47.2697 73.0003 47.2669H49.0087C47.9157 47.2887 46.8721 47.7266 46.0908 48.4913C45.3094 49.256 44.8492 50.2899 44.8039 51.3822ZM142.231 69.812H99.5267C99.3289 69.812 99.1393 69.7335 98.9995 69.5937C98.8597 69.4539 98.7811 69.2642 98.7811 69.0665V64.2801C98.7811 64.0824 98.8597 63.8928 98.9995 63.753C99.1393 63.6131 99.3289 63.5346 99.5267 63.5346H142.231C142.429 63.5346 142.619 63.6131 142.758 63.753C142.898 63.8928 142.977 64.0824 142.977 64.2801V69.0665C142.977 69.2642 142.898 69.4539 142.758 69.5937C142.619 69.7335 142.429 69.812 142.231 69.812ZM100.272 68.321H141.486V65.0257H100.272V68.321Z" fill="var(--main-color, #337AB7)" />
		<path d="M98.0504 72.0487H39.8087C39.4404 72.0474 39.0782 71.9539 38.7553 71.7768C38.4323 71.5997 38.1588 71.3446 37.9597 71.0347L32.3682 62.4908C32.1313 62.1273 32.0068 61.702 32.0103 61.2681V53.6189C32.0103 53.0283 32.2439 52.4616 32.6601 52.0426C33.0764 51.6236 33.6414 51.3862 34.232 51.3822H83.7509C84.1638 51.3807 84.568 51.4999 84.914 51.7252L99.2284 60.6717C99.5504 60.8747 99.8153 61.1566 99.9979 61.4906C100.181 61.8245 100.275 62.1996 100.272 62.5803V69.812C100.272 70.4027 100.039 70.9693 99.6223 71.3883C99.2061 71.8074 98.641 72.0447 98.0504 72.0487ZM34.232 52.8733C34.0369 52.8772 33.8511 52.9575 33.7145 53.0969C33.5779 53.2363 33.5014 53.4237 33.5014 53.6189V61.2681C33.5043 61.4153 33.5454 61.5591 33.6207 61.6856L39.1973 70.2146C39.2633 70.3175 39.3536 70.4026 39.4602 70.4624C39.5668 70.5222 39.6865 70.5549 39.8087 70.5576H98.0504C98.2456 70.5537 98.4314 70.4734 98.568 70.334C98.7046 70.1946 98.7811 70.0072 98.7811 69.812V62.5505C98.7897 62.4271 98.7669 62.3035 98.7147 62.1914C98.6625 62.0793 98.5828 61.9822 98.4829 61.9093L84.1684 52.9628C84.0592 52.886 83.9292 52.8444 83.7957 52.8435L34.232 52.8733ZM152.535 72.0487H143.35C142.854 72.0447 142.38 71.8451 142.031 71.4931C141.682 71.1412 141.486 70.6656 141.486 70.1699V62.8487C141.486 62.353 141.682 61.8774 142.031 61.5254C142.38 61.1735 142.854 60.9739 143.35 60.9699H152.535C153.03 60.9739 153.504 61.1735 153.854 61.5254C154.203 61.8774 154.399 62.353 154.399 62.8487V70.1699C154.399 70.6656 154.203 71.1412 153.854 71.4931C153.504 71.8451 153.03 72.0447 152.535 72.0487ZM143.35 62.461C143.249 62.4649 143.155 62.5074 143.085 62.5797C143.016 62.652 142.977 62.7484 142.977 62.8487V70.1699C142.977 70.2702 143.016 70.3666 143.085 70.4389C143.155 70.5112 143.249 70.5537 143.35 70.5576H152.535C152.635 70.5537 152.73 70.5112 152.799 70.4389C152.869 70.3666 152.908 70.2702 152.907 70.1699V62.8487C152.908 62.7484 152.869 62.652 152.799 62.5797C152.73 62.5074 152.635 62.4649 152.535 62.461H143.35ZM33.8145 100.827C31.907 100.807 30.0853 100.031 28.749 98.6699C27.4128 97.3085 26.6712 95.4726 26.6871 93.565V93.073C26.7109 92.8752 26.8122 92.695 26.9688 92.572C27.1254 92.449 27.3244 92.3932 27.5221 92.4169C27.7199 92.4406 27.9001 92.5419 28.0231 92.6985C28.1462 92.8551 28.202 93.0542 28.1782 93.2519C28.1708 93.3561 28.1708 93.4608 28.1782 93.565C28.1782 95.0638 28.7736 96.5012 29.8334 97.561C30.8932 98.6208 32.3306 99.2162 33.8294 99.2162C35.3282 99.2162 36.7656 98.6208 37.8254 97.561C38.8853 96.5012 39.4806 95.0638 39.4806 93.565C39.4877 93.4558 39.4877 93.3462 39.4806 93.237C39.4703 93.139 39.4796 93.0399 39.5078 92.9455C39.536 92.8511 39.5827 92.7632 39.6451 92.687C39.7075 92.6107 39.7844 92.5476 39.8713 92.5012C39.9583 92.4549 40.0535 92.4262 40.1516 92.4169C40.3479 92.4038 40.5419 92.4658 40.6942 92.5904C40.8465 92.715 40.9457 92.8929 40.9717 93.0879V93.565C40.9836 95.4765 40.2367 97.3146 38.8949 98.676C37.5531 100.037 35.726 100.811 33.8145 100.827ZM127.32 100.827C125.413 100.807 123.591 100.031 122.255 98.6699C120.919 97.3085 120.177 95.4726 120.193 93.565V93.073C120.217 92.8752 120.318 92.695 120.475 92.572C120.631 92.449 120.83 92.3932 121.028 92.4169C121.226 92.4406 121.406 92.5419 121.529 92.6985C121.652 92.8551 121.708 93.0542 121.684 93.2519C121.677 93.3561 121.677 93.4608 121.684 93.565C121.684 94.3072 121.83 95.042 122.114 95.7276C122.398 96.4133 122.815 97.0363 123.339 97.561C123.864 98.0858 124.487 98.5021 125.173 98.7861C125.858 99.0701 126.593 99.2162 127.335 99.2162C128.077 99.2162 128.812 99.0701 129.498 98.7861C130.184 98.5021 130.807 98.0858 131.331 97.561C131.856 97.0363 132.272 96.4133 132.556 95.7276C132.84 95.042 132.987 94.3072 132.987 93.565C132.994 93.4558 132.994 93.3462 132.987 93.237C132.976 93.139 132.985 93.0399 133.014 92.9455C133.042 92.8511 133.089 92.7632 133.151 92.687C133.213 92.6107 133.29 92.5476 133.377 92.5012C133.464 92.4549 133.559 92.4262 133.658 92.4169C133.854 92.4038 134.048 92.4658 134.2 92.5904C134.352 92.715 134.452 92.8929 134.478 93.0879V93.565C134.49 95.4765 133.743 97.3146 132.401 98.676C131.059 100.037 129.232 100.811 127.32 100.827Z" fill="var(--main-color, #337AB7)" />
		<path d="M112.35 110.757C109.746 110.73 107.26 109.67 105.437 107.811C103.615 105.952 102.604 103.445 102.628 100.842C102.631 99.1956 103.04 97.5758 103.821 96.1267C104.601 94.6775 105.728 93.444 107.101 92.5362C107.267 92.4254 107.471 92.3852 107.666 92.4244C107.862 92.4635 108.034 92.5788 108.145 92.7449C108.256 92.911 108.296 93.1143 108.257 93.31C108.218 93.5058 108.102 93.678 107.936 93.7887C106.776 94.5623 105.826 95.6114 105.17 96.8422C104.514 98.0729 104.174 99.447 104.179 100.842C104.082 101.977 104.222 103.121 104.59 104.2C104.958 105.278 105.546 106.269 106.317 107.109C107.088 107.948 108.025 108.618 109.069 109.077C110.112 109.536 111.24 109.772 112.38 109.772C113.52 109.772 114.647 109.536 115.691 109.077C116.734 108.618 117.671 107.948 118.442 107.109C119.213 106.269 119.801 105.278 120.169 104.2C120.538 103.121 120.678 101.977 120.581 100.842C120.589 99.4481 120.251 98.0744 119.598 96.8436C118.945 95.6127 117.996 94.5631 116.838 93.7887C116.756 93.7339 116.685 93.6634 116.63 93.5812C116.575 93.4991 116.537 93.407 116.517 93.31C116.498 93.2131 116.498 93.1133 116.517 93.0164C116.536 92.9194 116.574 92.8272 116.629 92.7449C116.684 92.6627 116.755 92.592 116.837 92.537C116.919 92.482 117.011 92.4438 117.108 92.4244C117.205 92.405 117.305 92.4049 117.402 92.4241C117.499 92.4433 117.591 92.4813 117.673 92.5362C119.033 93.4516 120.146 94.6886 120.914 96.1374C121.681 97.5862 122.079 99.2021 122.072 100.842C122.096 103.445 121.085 105.952 119.262 107.811C117.44 109.67 114.953 110.73 112.35 110.757ZM91.43 110.757C88.8264 110.73 86.3403 109.67 84.5175 107.811C82.6947 105.952 81.6842 103.445 81.7081 100.842C81.7067 99.1948 82.1147 97.5736 82.8956 96.1238C83.6765 94.674 84.8056 93.4411 86.1814 92.5362C86.2636 92.4813 86.3558 92.4433 86.4528 92.4241C86.5498 92.4049 86.6495 92.405 86.7465 92.4244C86.8434 92.4438 86.9355 92.482 87.0177 92.537C87.0998 92.592 87.1703 92.6627 87.2251 92.7449C87.2799 92.8272 87.318 92.9194 87.3372 93.0164C87.3564 93.1133 87.3563 93.2131 87.3369 93.31C87.3175 93.407 87.2792 93.4991 87.2242 93.5812C87.1692 93.6634 87.0986 93.7339 87.0164 93.7887C85.5256 94.7539 84.3869 96.1754 83.7705 97.841C83.1541 99.5065 83.0929 101.327 83.5962 103.03C84.0994 104.733 85.14 106.228 86.5626 107.291C87.9853 108.354 89.7136 108.929 91.4896 108.929C93.2656 108.929 94.9939 108.354 96.4166 107.291C97.8392 106.228 98.8798 104.733 99.3831 103.03C99.8863 101.327 99.8251 99.5065 99.2087 97.841C98.5923 96.1754 97.4537 94.7539 95.9629 93.7887C95.8806 93.7339 95.81 93.6634 95.755 93.5812C95.7 93.4991 95.6617 93.407 95.6423 93.31C95.6229 93.2131 95.6228 93.1133 95.642 93.0164C95.6612 92.9194 95.6993 92.8272 95.7541 92.7449C95.8089 92.6627 95.8794 92.592 95.9616 92.537C96.0437 92.482 96.1358 92.4438 96.2328 92.4244C96.3297 92.405 96.4295 92.4049 96.5264 92.4241C96.6234 92.4433 96.7156 92.4813 96.7979 92.5362C98.158 93.4516 99.271 94.6886 100.038 96.1374C100.806 97.5862 101.204 99.2021 101.197 100.842C101.208 102.134 100.965 103.417 100.48 104.616C99.9953 105.814 99.2787 106.905 98.3714 107.827C97.4641 108.748 96.3839 109.481 95.1927 109.984C94.0016 110.487 92.7229 110.749 91.43 110.757ZM70.5101 110.757C67.9065 110.73 65.4204 109.67 63.5976 107.811C61.7748 105.952 60.7643 103.445 60.7882 100.842C60.7907 99.1956 61.2005 97.5758 61.981 96.1267C62.7615 94.6775 63.8885 93.444 65.2614 92.5362C65.4275 92.4254 65.6308 92.3852 65.8266 92.4244C66.0223 92.4635 66.1945 92.5788 66.3052 92.7449C66.4159 92.911 66.4561 93.1143 66.417 93.31C66.3778 93.5058 66.2625 93.678 66.0964 93.7887C64.9362 94.5623 63.9857 95.6114 63.33 96.8422C62.6743 98.0729 62.3338 99.447 62.3389 100.842C62.242 101.977 62.382 103.121 62.7501 104.2C63.1182 105.278 63.7064 106.269 64.4774 107.109C65.2484 107.948 66.1853 108.618 67.2289 109.077C68.2725 109.536 69.4 109.772 70.5399 109.772C71.6798 109.772 72.8072 109.536 73.8508 109.077C74.8944 108.618 75.8314 107.948 76.6024 107.109C77.3733 106.269 77.9615 105.278 78.3296 104.2C78.6978 103.121 78.8378 101.977 78.7408 100.842C78.7489 99.4481 78.4113 98.0744 77.7581 96.8436C77.1049 95.6127 76.1567 94.5631 74.9982 93.7887C74.916 93.7339 74.8453 93.6634 74.7903 93.5812C74.7353 93.4991 74.6971 93.407 74.6777 93.31C74.6583 93.2131 74.6582 93.1133 74.6774 93.0164C74.6965 92.9194 74.7346 92.8272 74.7895 92.7449C74.8443 92.6627 74.9148 92.592 74.9969 92.537C75.079 92.482 75.1712 92.4438 75.2681 92.4244C75.365 92.405 75.4648 92.4049 75.5618 92.4241C75.6587 92.4433 75.751 92.4813 75.8332 92.5362C77.1933 93.4516 78.3064 94.6886 79.0737 96.1374C79.841 97.5862 80.2389 99.2021 80.2319 100.842C80.2558 103.445 79.2453 105.952 77.4225 107.811C75.5997 109.67 73.1136 110.73 70.5101 110.757ZM49.5901 110.757C46.9866 110.73 44.5005 109.67 42.6777 107.811C40.8548 105.952 39.8444 103.445 39.8683 100.842C39.8668 99.1948 40.2749 97.5736 41.0558 96.1238C41.8366 94.674 42.9658 93.4411 44.3415 92.5362C44.5076 92.4254 44.7109 92.3852 44.9066 92.4244C45.1024 92.4635 45.2746 92.5788 45.3853 92.7449C45.496 92.911 45.5362 93.1143 45.4971 93.31C45.4579 93.5058 45.3426 93.678 45.1765 93.7887C43.6857 94.7539 42.5471 96.1754 41.9307 97.841C41.3143 99.5065 41.2531 101.327 41.7563 103.03C42.2596 104.733 43.3002 106.228 44.7228 107.291C46.1455 108.354 47.8738 108.929 49.6498 108.929C51.4258 108.929 53.1541 108.354 54.5767 107.291C55.9994 106.228 57.04 104.733 57.5432 103.03C58.0465 101.327 57.9853 99.5065 57.3689 97.841C56.7524 96.1754 55.6138 94.7539 54.123 93.7887C53.9569 93.678 53.8416 93.5058 53.8025 93.31C53.7633 93.1143 53.8036 92.911 53.9143 92.7449C54.025 92.5788 54.1972 92.4635 54.3929 92.4244C54.5887 92.3852 54.792 92.4254 54.958 92.5362C56.3181 93.4516 57.4312 94.6886 58.1985 96.1374C58.9659 97.5862 59.3637 99.2021 59.3567 100.842C59.3685 102.134 59.1251 103.417 58.6403 104.616C58.1554 105.814 57.4389 106.905 56.5315 107.827C55.6242 108.748 54.5441 109.481 53.3529 109.984C52.1618 110.487 50.8831 110.749 49.5901 110.757Z" fill="var(--main-color, #337AB7)" />
		<path d="M142.097 93.908H20.6631C20.0699 93.908 19.5011 93.6723 19.0816 93.2529C18.6622 92.8334 18.4265 92.2645 18.4265 91.6714C18.4265 91.0782 18.6622 90.5093 19.0816 90.0898C19.5011 89.6704 20.0699 89.4347 20.6631 89.4347H142.097C142.69 89.4347 143.259 89.6704 143.679 90.0898C144.098 90.5093 144.334 91.0782 144.334 91.6714C144.334 92.2645 144.098 92.8334 143.679 93.2529C143.259 93.6723 142.69 93.908 142.097 93.908ZM20.6631 90.9258C20.4654 90.9258 20.2758 91.0044 20.136 91.1442C19.9961 91.284 19.9176 91.4736 19.9176 91.6714C19.9176 91.8691 19.9961 92.0587 20.136 92.1985C20.2758 92.3383 20.4654 92.4169 20.6631 92.4169H142.097C142.295 92.4169 142.484 92.3383 142.624 92.1985C142.764 92.0587 142.843 91.8691 142.843 91.6714C142.843 91.4736 142.764 91.284 142.624 91.1442C142.484 91.0044 142.295 90.9258 142.097 90.9258H20.6631ZM55.2414 65.0108H43.1785C42.9808 65.0108 42.7912 64.9322 42.6513 64.7924C42.5115 64.6526 42.433 64.463 42.433 64.2652C42.433 64.0675 42.5115 63.8779 42.6513 63.738C42.7912 63.5982 42.9808 63.5197 43.1785 63.5197H55.2414C55.4391 63.5197 55.6287 63.5982 55.7686 63.738C55.9084 63.8779 55.9869 64.0675 55.9869 64.2652C55.9869 64.463 55.9084 64.6526 55.7686 64.7924C55.6287 64.9322 55.4391 65.0108 55.2414 65.0108ZM55.2414 62.0286H43.1785C42.9808 62.0286 42.7912 61.95 42.6513 61.8102C42.5115 61.6704 42.433 61.4808 42.433 61.2831C42.433 61.0853 42.5115 60.8957 42.6513 60.7559C42.7912 60.6161 42.9808 60.5375 43.1785 60.5375H55.2414C55.4391 60.5375 55.6287 60.6161 55.7686 60.7559C55.9084 60.8957 55.9869 61.0853 55.9869 61.2831C55.9869 61.4808 55.9084 61.6704 55.7686 61.8102C55.6287 61.95 55.4391 62.0286 55.2414 62.0286ZM55.2414 59.0464H43.1785C42.9808 59.0464 42.7912 58.9679 42.6513 58.8281C42.5115 58.6882 42.433 58.4986 42.433 58.3009C42.433 58.1032 42.5115 57.9135 42.6513 57.7737C42.7912 57.6339 42.9808 57.5553 43.1785 57.5553H55.2414C55.4391 57.5553 55.6287 57.6339 55.7686 57.7737C55.9084 57.9135 55.9869 58.1032 55.9869 58.3009C55.9869 58.4986 55.9084 58.6882 55.7686 58.8281C55.6287 58.9679 55.4391 59.0464 55.2414 59.0464Z" fill="var(--accent-color, #F58220)" />
	</g>
	<defs>
		<clipPath id="clip0_7_2">
			<rect width="173" height="154" fill="white" />
		</clipPath>
	</defs>
</svg>

<svg xmlns="http://www.w3.org/2000/svg" id="self" width="133" height="118" fill="none" viewBox="0 0 173 154"><g clip-path="url(#clip0_7_2)"><path fill="#000" d="M117.867 111.637H43.686a17.43 17.43 0 0 1-14.673-8.052 54 54 0 0 1-2.49-5.547 74 74 0 0 1-1.744-4.652l-.314-.97h112.503l-.373 1a104 104 0 0 1-4.235 10.438 17.65 17.65 0 0 1-6.307 5.74 17.34 17.34 0 0 1-8.186 2.043M26.538 93.908a66 66 0 0 0 1.357 3.564 53 53 0 0 0 2.37 5.308 15.952 15.952 0 0 0 13.42 7.366h74.182c2.603-.01 5.163-.66 7.455-1.894a16.2 16.2 0 0 0 5.786-5.263 88 88 0 0 0 3.698-9.081z"/><path fill="var(--main-color, #337AB7)" d="M117.867 114.873H43.686a20.47 20.47 0 0 1-9.827-2.52 21.1 21.1 0 0 1-7.455-6.964 53.4 53.4 0 0 1-4.906-12.048.766.766 0 1 1 1.491-.357 52.6 52.6 0 0 0 4.727 11.585 19.3 19.3 0 0 0 6.948 6.472 19 19 0 0 0 9.111 2.341h74.092a19.13 19.13 0 0 0 15.88-8.559 35 35 0 0 0 2.714-5.965c.82-2.132 1.61-4.473 2.132-5.964a.747.747 0 0 1 1.402.477c-.522 1.491-1.313 3.817-2.133 5.965a38 38 0 0 1-2.877 6.262 20.63 20.63 0 0 1-17.118 9.275m0-3.236H43.686a17.43 17.43 0 0 1-14.673-8.052 54 54 0 0 1-2.49-5.547 74 74 0 0 1-1.744-4.652.778.778 0 0 1 1.49-.447c.373 1.178 1 2.833 1.686 4.473a53 53 0 0 0 2.37 5.308 15.95 15.95 0 0 0 13.42 7.366h74.122a15.85 15.85 0 0 0 7.455-1.893 16.2 16.2 0 0 0 5.786-5.264 99 99 0 0 0 4.07-10.08.75.75 0 0 1 .955-.447.745.745 0 0 1 .447.954 104 104 0 0 1-4.235 10.438 17.64 17.64 0 0 1-6.307 5.741 17.35 17.35 0 0 1-8.171 2.102m-20.875-33.46H43.984a.746.746 0 0 1-.746-.746v-6.128a.745.745 0 0 1 .746-.745h53.008a.745.745 0 0 1 .745.745v6.129a.76.76 0 0 1-.745.745m-52.188-1.491h51.412v-4.637H44.804z"/><path fill="var(--main-color, #337AB7)" d="M142.097 90.926H20.663a.72.72 0 0 1-.552-.239.69.69 0 0 1-.178-.581l.864-7.381a7.455 7.455 0 0 1 7.71-5.965h87.436a28.3 28.3 0 0 1 14.419 3.862l12.108 7.083a.75.75 0 0 1 .373.641v1.775a.746.746 0 0 1-.746.805M21.498 89.435h119.854v-.612l-11.75-6.993a26.84 26.84 0 0 0-13.659-3.653H28.506a5.964 5.964 0 0 0-6.232 4.712zm56.527-36.562H43.984a.745.745 0 0 1-.746-.745v-.582a5.77 5.77 0 0 1 5.77-5.77H73a5.77 5.77 0 0 1 5.77 5.77v.582a.746.746 0 0 1-.745.745m-33.221-1.49H77.28A4.294 4.294 0 0 0 73 47.266H49.01a4.294 4.294 0 0 0-4.205 4.115m97.427 18.429H99.527a.745.745 0 0 1-.746-.745V64.28a.745.745 0 0 1 .746-.745h42.704a.743.743 0 0 1 .746.745v4.787a.745.745 0 0 1-.746.745m-41.959-1.491h41.214v-3.295h-41.214z"/><path fill="var(--main-color, #337AB7)" d="M98.05 72.049H39.81a2.2 2.2 0 0 1-1.85-1.014l-5.59-8.544a2.2 2.2 0 0 1-.359-1.223v-7.65a2.237 2.237 0 0 1 2.222-2.236h49.519c.413-.001.817.118 1.163.343l14.314 8.947a2.24 2.24 0 0 1 1.044 1.908v7.232a2.234 2.234 0 0 1-2.222 2.237M34.232 52.873a.745.745 0 0 0-.73.746v7.65a.85.85 0 0 0 .119.417l5.576 8.529a.75.75 0 0 0 .612.343H98.05a.745.745 0 0 0 .731-.746v-7.261a.73.73 0 0 0-.298-.642l-14.315-8.946a.66.66 0 0 0-.372-.12zM152.535 72.05h-9.185a1.88 1.88 0 0 1-1.864-1.88v-7.32a1.88 1.88 0 0 1 1.864-1.88h9.185a1.88 1.88 0 0 1 1.864 1.88v7.32a1.88 1.88 0 0 1-1.864 1.88m-9.185-9.588a.39.39 0 0 0-.373.388v7.32a.39.39 0 0 0 .373.389h9.185a.386.386 0 0 0 .372-.388v-7.321a.386.386 0 0 0-.372-.388zM33.815 100.827a7.205 7.205 0 0 1-7.128-7.262v-.492a.751.751 0 0 1 1.491.179 2 2 0 0 0 0 .313 5.651 5.651 0 0 0 11.303 0q.01-.165 0-.328a.746.746 0 0 1 .67-.82.775.775 0 0 1 .82.67v.478a7.217 7.217 0 0 1-7.156 7.262m93.505 0a7.204 7.204 0 0 1-7.127-7.262v-.492a.75.75 0 0 1 1.491.179 2 2 0 0 0 0 .313 5.65 5.65 0 1 0 11.303 0q.01-.165 0-.328a.747.747 0 0 1 .671-.82.774.774 0 0 1 .82.67v.478a7.216 7.216 0 0 1-7.158 7.262"/><path fill="var(--main-color, #337AB7)" d="M112.35 110.757a9.825 9.825 0 0 1-9.722-9.915 9.98 9.98 0 0 1 4.473-8.306.752.752 0 1 1 .835 1.253 8.44 8.44 0 0 0-3.757 7.053 8.23 8.23 0 0 0 4.89 8.235 8.22 8.22 0 0 0 6.622 0 8.239 8.239 0 0 0 4.89-8.235 8.43 8.43 0 0 0-3.743-7.053.755.755 0 0 1-.209-1.044.76.76 0 0 1 .773-.32q.147.028.271.111a9.97 9.97 0 0 1 4.399 8.306 9.825 9.825 0 0 1-9.722 9.915m-20.92 0a9.824 9.824 0 0 1-9.722-9.915 9.93 9.93 0 0 1 4.473-8.306.75.75 0 0 1 1.156.48.75.75 0 0 1-.32.773 8.23 8.23 0 1 0 8.946 0 .75.75 0 0 1-.001-1.252.75.75 0 0 1 .836 0 9.96 9.96 0 0 1 4.399 8.305 9.84 9.84 0 0 1-2.826 6.985 9.83 9.83 0 0 1-6.941 2.93m-20.92 0a9.824 9.824 0 0 1-9.722-9.915 9.98 9.98 0 0 1 4.473-8.306.752.752 0 1 1 .835 1.253 8.44 8.44 0 0 0-3.757 7.053 8.23 8.23 0 0 0 4.89 8.235 8.22 8.22 0 0 0 6.622 0 8.242 8.242 0 0 0 4.89-8.235 8.42 8.42 0 0 0-3.743-7.053.752.752 0 1 1 .835-1.253 9.96 9.96 0 0 1 4.399 8.306 9.826 9.826 0 0 1-9.722 9.915m-20.92 0a9.824 9.824 0 0 1-9.722-9.915 9.93 9.93 0 0 1 4.474-8.306.752.752 0 1 1 .834 1.253 8.23 8.23 0 1 0 8.947 0 .752.752 0 1 1 .835-1.253 9.96 9.96 0 0 1 4.399 8.306 9.83 9.83 0 0 1-6.004 9.142 9.8 9.8 0 0 1-3.763.773"/><path fill="var(--accent-color, #F58220)" d="M142.097 93.908H20.663a2.237 2.237 0 0 1 0-4.473h121.434a2.24 2.24 0 0 1 2.237 2.236 2.24 2.24 0 0 1-2.237 2.237M20.663 90.926a.745.745 0 0 0 0 1.49h121.434a.745.745 0 0 0 0-1.49zM55.241 65.01H43.18a.746.746 0 0 1 0-1.491H55.24a.746.746 0 0 1 0 1.49m0-2.982H43.18a.746.746 0 0 1 0-1.492H55.24a.746.746 0 0 1 0 1.492m0-2.983H43.18a.746.746 0 0 1 0-1.49H55.24a.746.746 0 0 1 0 1.49"/></g><defs><clipPath id="clip0_7_2"><path fill="#fff" d="M0 0h173v154H0z"/></clipPath></defs></svg>
